X:1
T:Bourbon Transcribed from The Charlestown Collection , 1803; Counter by B. C. Johnston, 2019.. 
T:D minor Oliver Holden, 1803
T:Isaac Watts, 1709 (Hymn 139, Book 2)                      88. 88. (L. M.)
%%score [ 1 2 3 4 ]
L:1/8
M:3/2
K:F
V:1 treble nm="Voice"
V:2 treble nm="Soprano"
V:3 treble-8 nm="Tenor"
V:4 bass nm="Bass"
V:1
"_1. How oft    have   sin               and    Sa          –         tan strove To rend my soul from Thee, my God! But  ev     –     er  –   las       –     ting   is                          Thy      love,   And  Je     –      sus        seals                   it" A4 | %1
 d8 c4 | (F3 G A4) A4 | A8 F4 | G8 A4 | A4 A4 F3 G | A8 A4 | A8 d4 | (f3 e) d4 c4 | (F3 G A4) A4 | %10
 A8 F4 | G8 F4 | A8 f4 | (g4 f4) A4 | %14
"_1. with            His     blood.                Amidst temptations sharp and long,  My  soul  to this  dear     re    –     fuge   flies;    Hope   is      my      anchor,   firm  and strong,   While tempests blow and billows  rise." (d3 e) f4 e4 | %15
 d12 ||[M:4/4] z4 F4 | c2 c2 c2 c2 | f2 d2 A2 A2 | A3 A A2 d2 | (^c2 d2) e4 | d8 | A4 F2 (FG) | %23
 A2 A2 f2 f2 | e6 f2 | a2 A2 c4 | A4 f2 e2 | d8 |] %28
V:2
 D4 | (D4 F4) G4 | (F3 E D4) F4 | (A4 G4) F4 | G8 D4 | E4 A4 A3 G | F8 A4 | A8 A4 | (F3 G A4) G4 | %9
 (F3 E D4) D4 | (A4 G4) F4 | G8 F4 | (D3 E F4) A4 | (G4 F4) (F2 G2) | (A4 F4) E4 | D12 || %16
[M:4/4] z4 A4 | G2 G2 c2 c2 | A2 G2 A2 A2 | F3 G A2 F2 | A4 E4 | A8 | A4 c2 AG | A2 F2 D2 D2 | %24
 E6 D2 | AG A2 F4 | E4 F2 E2 | D8 |] %28
V:3
"_2. The  oath  and  pro   –      mise    of                          the  Lord  Join to confirm the wondrous grace;  E  – ter    –    nal   power          per – forms                the  word, And  fills                all        heaven              with" A4 | %1
 (B4 A4) G4 | (A4 d4) D4 | (D3 E F2 G2) (A2 B2) | c8 d4 | e4 e4 A3 G | F8 E4 | D8 A4 | (B4 A4) G4 | %9
 (A4 d4) D4 | (D3 E F2 G2) (A2 B2) | c8 A4 | (d3 e) d4 (A2 F2) | (c3 d) c2 A2 (F2 G2) | %14
"_2. end      –     less    praise.                  The   gospel bears my  spirit   up;    A    faith–ful  and  un  –  chan –  ging     God    Lays   the    foun – da –tion  for my    hope      In      oaths     and   promises  and  blood." (A4 d4) ^c4 | %15
 d12 ||[M:4/4] z4 A4 | G2 G2 F2 F2 | A2 d2 ^c2 e2 | f3 e d2 d2 | (e2 d2) ^c4 | d8 | c4 c2 (AG) | %23
 (FE) D2 d2 d2 | ^c6 d2 | (^cd) e2 f4 | e4 d2 ^c2 | d8 |] %28
V:4
 D,4 | D,8 E,4 | (F,3 E,) D,4 D,4 | D,8 D,4 | C,8 F,4 | A,4 A,,4 D,3 ^C, | D,8 A,,4 | D,8 D,4 | %8
 D,8 E,4 | (F,3 E,) D,4 D,4 | D,8 D,4 | C,8 F,4 | D,8 D,4 | (C,4 F,4) (F,2 E,2) | D,8 A,,4 | %15
 D,12 ||[M:4/4] z4 F,4 | C,2 C,2 F,2 F,2 | F,2 G,2 A,2 A,2 | F,3 A, D,2 D,2 | A,4 A,,4 | D,8 | %22
 F,4 (A,G,) (F,E,) | D,2 D,2 D,2 D,2 | A,6 D,2 | A,2 A,2 F,4 | A,4 A,2 A,,2 | D,8 |] %28

